!!!!SEGMENT: pl-wn--sd-xvi-qu-273--036_gomolka-mikolaj--zywot-niepoboznego-za-swiadka-mi-stoi.krn
!!!cenid: 15xx:241
!!!COM: Gomółka, Mikołaj
!!!COM-rismid: pe30013343
!!!CDT: ~1535->1591/04/30
!!!CNT: Polish
!!!GTL: Melodiae na psalterz polski
!!!OTL: XXXVI. Żywot niepobożnego za świadka mi stoi,
!!!PDT: 1580
!!!AGN: Sacred
!!!SMS-siglum: PL-Wn
!!!SMS-shelfmark: SD XVI.Qu.273
!!!SMS-shelfwork: 036 G
!!!NIFC-rismid:
!!!ONB-nifc: Melodiae na psalterz polski
**kern	**text	**text	**kern	**text	**text	**kern	**text	**text	**kern	**text	**text
*part4	*part4	*part4	*part3	*part3	*part3	*part2	*part2	*part2	*part1	*part1	*part1
*staff4	*staff4	*staff4	*staff3	*staff3	*staff3	*staff2	*staff2	*staff2	*staff1	*staff1	*staff1
*clefF3	*	*	*clefC3	*	*	*clefC3	*	*	*clefC1	*	*
*k[b-]	*	*	*k[b-]	*	*	*k[b-]	*	*	*k[b-]	*	*
*F:	*	*	*F:	*	*	*F:	*	*	*F:	*	*
*M4/2	*	*	*M4/2	*	*	*M4/2	*	*	*M4/2	*	*
*met(C|)	*	*	*met(C|)	*	*	*met(C|)	*	*	*met(C|)	*	*
*	*verse[1]	*verse[2]	*	*verse[1]	*verse[2]	*	*verse[1]	*verse[2]	*	*verse[1]	*verse[2]
*>[A,A,B,B]	*>[A,A,B,B]	*>[A,A,B,B]	*>[A,A,B,B]	*>[A,A,B,B]	*>[A,A,B,B]	*>[A,A,B,B]	*>[A,A,B,B]	*>[A,A,B,B]	*>[A,A,B,B]	*>[A,A,B,B]	*>[A,A,B,B]
*>A	*>A	*>A	*>A	*>A	*>A	*>A	*>A	*>A	*>A	*>A	*>A
1F	Ӡy-	Ӡe	1f	Ӡy-	Ӡe	1a	Ӡy-	Ӡe	1cc	Ӡy-	Ӡe
2c	-wot	on	2e	-wot	on	2g	-wot	on	2cc	-wot	on
1c	nie-	o	1e	nie-	o	1g	nie-	o	1cc	nie-	o
=1-	=1-	=1-	=1-	=1-	=1-	=1-	=1-	=1-	=1-	=1-	=1-
2A	-po-	Bo-	2f	-po-	Bo-	2a	-po-	Bo-	2cc	-po-	Bo-
!	!"z z ."	!	!	!"z z ."	!	!	!"z z ."	!	!	!"z z ."	!
2B-	-boӡ-	-gu	2f	-boӡ-	-gu	2d	-boӡ-	-gu	2b-	-boӡ-	-gu
2c	-né-	nié-	2e	-né-	nié-	2c/	-né-	nié-	4a	-né-	nié-
.	.	.	.	.	.	.	.	.	4g	.	.
=2-	=2-	=2-	=2-	=2-	=2-	=2-	=2-	=2-	=2-	=2-	=2-
2F/	-go	-wie	2.f	-go	-wie	2c/	-go	-wie	2a	-go	wie
2F/	ӡá	á-	.	.	.	2a	ӡá	á-	2cc	ӡá	á-
.	.	.	4e	ӡá	.	.	.	.	.	.	.
1B-	świád-	-ni	2d	świád-	á-	2.f	świád-	-ni	1dd	świád-	-ni
.	.	.	2d	.	-ni	.	.	.	.	.	.
.	.	.	.	.	.	4g	.	.	.	.	.
=3-	=3-	=3-	=3-	=3-	=3-	=3-	=3-	=3-	=3-	=3-	=3-
2A	-ťá	ʃye	2e	-ťá	ʃye	2a	-ťá	ʃye	2cc	-ťá	ʃye
2F/	mi	go	2f	mi	go	2a	mi	go	1cc	mi	go
1G	ʃto-	bo-	1d	ʃto-	bo-	2.g	ʃto-	bo	.	.	.
.	.	.	.	.	.	.	.	.	2b-	ʃto-	bo-
.	.	.	.	.	.	4f	.	.	.	.	.
=4-	=4-	=4-	=4-	=4-	=4-	=4-	=4-	=4-	=4-	=4-	=4-
1C	-i	i:	1c	-i	i:	1e	-i	i:	1cc	-i	i:
=-:!:-	=-:!:-	=-:!:-	=-:!:-	=-:!:-	=-:!:-	=-:!:-	=-:!:-	=-:!:-	=-:!:-	=-:!:-	=-:!:-
*>B	*>B	*>B	*>B	*>B	*>B	*>B	*>B	*>B	*>B	*>B	*>B
1F	Więc	.	1c	Więc	.	1f	Więc	.	1a	Więc	.
=5-	=5-	=5-	=5-	=5-	=5-	=5-	=5-	=5-	=5-	=5-	=5-
2BB-	ieʃᴣ-	.	2d	ieʃᴣ-	.	2f	ieʃᴣ-	.	2b-	ieʃᴣ-	.
2BB-	-cӡe	.	2d	-cӡe	.	2f	-cӡe	.	2b-	-cӡe	.
2.F	w_ʃwych-	.	2c/	w_ʃwych-	.	2f	w_ʃwych-	.	2.a	w_ʃwych-	.
.	.	.	2A	-ӡe	.	2c/	.	.	.	.	.
4E	.	.	.	.	.	.	.	.	4g	.	.
=6-	=6-	=6-	=6-	=6-	=6-	=6-	=6-	=6-	=6-	=6-	=6-
4D	-ӡe	.	4B-	ӡłoś-	.	2F	-ӡe	.	4f	-ӡe	.
4C	.	.	2c/	.	.	.	.	.	4e	.	.
2D	ӡłoś-	.	.	.	.	2F	ӡłoś-	.	2f	ӡłoś-	.
.	.	.	4B-	.	.	.	.	.	.	.	.
2C	-ciách	.	2c/	-ciách	.	2G	-(ciách)	.	2e	-ciách	.
2F/	ʃo-	.	2c/	ʃo-	.	4F	ʃo	.	2a	ʃo-	.
.	.	.	.	.	.	4G	.	.	.	.	.
!!LO:PB:g=original
=7-	=7-	=7-	=7-	=7-	=7-	=7-	=7-	=7-	=7-	=7-	=7-
2F/	-b(ie)	.	2F	-bie	.	4A	-bie	.	2a	-bie	.
.	.	.	.	.	.	4B-	.	.	.	.	.
2E	poch-	.	2G	poch-	.	4c/	poch-	.	2g	poch-	.
.	.	.	.	.	.	4A	.	.	.	.	.
2D	-le-	.	2A	-le-	.	4B-	-le	.	2f	-le-	.
.	.	.	.	.	.	2c/	bu	.	.	.	.
2D	-bu-	.	2F	-bu-	.	.	.	.	2f	-bu-	.
.	.	.	.	.	.	4B-	.	.	.	.	.
=8-	=8-	=8-	=8-	=8-	=8-	=8-	=8-	=8-	=8-	=8-	=8-
1C	-ie	.	1G	-ie	.	1c	je	.	1e	-ie	.
1C	Ӡá	.	1c	Ӡá	.	1e	Ӡá	.	1g	Ӡá	.
=9-	=9-	=9-	=9-	=9-	=9-	=9-	=9-	=9-	=9-	=9-	=9-
2C	co	.	2c/	co	.	2e	co	.	2g	co	.
2C	Bo-	.	2c/	Bo-	.	2e	Bo-	.	2g	Bo-	.
!	!"z z ."	!	!	!"z z ."	!	!	!"z z ."	!	!	!"z z ."	!
4BB-	-ӡą	.	2d	-ӡą	.	2f	-ӡą	.	2b-	-ӡą	.
4C	.	.	.	.	.	.	.	.	.	.	.
4D	y	.	2d	y	.	2f	y	.	2b-	y	.
4E	.	.	.	.	.	.	.	.	.	.	.
=10-	=10-	=10-	=10-	=10-	=10-	=10-	=10-	=10-	=10-	=10-	=10-
1F	ludӡ-	.	1c	ludӡ-	.	1f	ludӡ-	.	1a	ludӡ-	.
1C	-ťą	.	1c	-ťą	.	1e	-(ťą)	.	1g	-ťą	.
=11-	=11-	=11-	=11-	=11-	=11-	=11-	=11-	=11-	=11-	=11-	=11-
2.D	nie-	.	2.A	nie-	.	2.d	nie-	.	2.f	nie-	.
4BB-	-na-	.	4B-	-na-	.	4d	-na-	.	4d	-na-	.
2C	-wiść	.	2G	-wiść	.	2c/	-w(iść)	.	2e	-wiść	.
2D	ӡy-	.	2F	ӡy-	.	2B-	ӡy-	.	1f	ӡy-	.
2ryy	.	.	2ryy	.	.	2ryy	.	.	.	.	.
=12-	=12-	=12-	=12-	=12-	=12-	=12-	=12-	=12-	=12-	=12-	=12-
1C	-ʃťu-	.	1G	-ʃťu-	.	2.c/	-ʃťu-	.	2ryy	.	.
.	.	.	.	.	.	.	.	.	2e	-ʃťu-	.
.	.	.	.	.	.	4B-	.	.	.	.	.
!!LO:N:vis=00
1F	-je.	.	1F/	-je.	.	1A/	-je.	.	1f/	-je.	.
=-	=-	=-	=-	=-	=-	=-	=-	=-	=-	=-	=-
*-	*-	*-	*-	*-	*-	*-	*-	*-	*-	*-	*-
!!!RDF**kern: l = terminal long
!!!system-decoration: s1,s2,s3,s4
!!!ENC:Anna Matuszewska
!!!END:2020-02-07
!!!URL-scan: https://polona.pl/item/melodiae-na-psalterz-polski,Nzk3MTM4ODQ/94 Scan on Polona
!!!IIIF: https://polona.pl/iiif/item/Nzk3MTM4ODQ/manifest.json
